X:1
T:Jack's Health
T:Jack's Health
T:Neal
C:Neal
L:1/8
M:6/8
K:G
V:1 treble 
V:1
 d/c/ | B>AG de=f e2 eefgdcBBcd A2 AAdc | BAG de=f e2 eefgdcBA>GF G3 G2 d/c/ | %3
 B>AG de=f e2 eefgdcBBcd A2 AAdc | BAG de=f e2 eefgdcBA>GF G3 G2 f/g/ | %5
 afd def g2 a b2 agafed^c d2 ddcB | cdc BcBABGFEDEFGAFD G3 G2 f/g/ | %7
 afd def g2 a b2 agafed^c d2 ddcB | cdc BcBABGFEDEFGAFD G3 G2 || %9

